img/feature-verified.svg

<svg fill="none" height="31" viewBox="0 0 32 31" width="32" xmlns="http://www.w3.org/2000/svg"><ellipse cx="16" cy="15.5" fill="#151923" rx="16" ry="15.5"/><path clip-rule="evenodd" d="m14.7071.292893c.3905.390524.3905 1.023687 0 1.414217l-9.7071 9.70709-4.707107-4.70709c-.3905241-.39053-.3905241-1.02369 0-1.41422.390524-.39052 1.023687-.39052 1.414217 0l3.29289 3.2929 8.2929-8.292897c.3905-.3905241 1.0237-.3905241 1.4142 0z" fill="#fff" fill-rule="evenodd" transform="translate(9 10)"/></svg>

<svg width="32" height="31" viewBox="0 0 32 31" fill="none" xmlns="http://www.w3.org/2000/svg">
<ellipse cx="16" cy="15.5" rx="16" ry="15.5" fill="#151923"/>
<path fill-rule="evenodd" clip-rule="evenodd" d="M14.7071 0.292893C15.0976 0.683417 15.0976 1.31658 14.7071 1.70711L5 11.4142L0.292893 6.70711C-0.0976311 6.31658 -0.0976311 5.68342 0.292893 5.29289C0.683417 4.90237 1.31658 4.90237 1.70711 5.29289L5 8.58579L13.2929 0.292893C13.6834 -0.0976311 14.3166 -0.0976311 14.7071 0.292893Z" transform="translate(9 10)" fill="white"/>
</svg>
